src/icons/svgs/16/pause.svg

<svg width="16" height="16" viewBox="0 0 16 16" fill="none" xmlns="http://www.w3.org/2000/svg">
<path d="M11.5 2H10.5C9.67156 2 9 2.66999 9 3.46843V12.4474C9 13.2739 9.67156 13.9439 10.5 13.9439L11.5 14C12.3284 14 13 13.33 13 12.5035V3.52455C13 2.69805 12.3281 2 11.5 2ZM5.5 2H4.5C3.67156 2 3 2.66999 3 3.49649V12.4754C3 13.3297 3.67156 14 4.5 14H5.5C6.32844 14 7 13.33 7 12.5035V3.52455C7 2.69805 6.32812 2 5.5 2Z" fill="black"/>
</svg>

<svg width="16" height="16" viewBox="0 0 16 16" xmlns="http://www.w3.org/2000/svg">
    <path d="M11.5 2h-1C9.672 2 9 2.67 9 3.468v8.98c0 .826.672 1.496 1.5 1.496l1 .056c.828 0 1.5-.67 1.5-1.496v-8.98C13 2.699 12.328 2 11.5 2zm-6 0h-1C3.672 2 3 2.67 3 3.496v8.98C3 13.33 3.672 14 4.5 14h1c.828 0 1.5-.67 1.5-1.496v-8.98C7 2.699 6.328 2 5.5 2z"/>
</svg>
